icons/paperclip-16.svg

<svg width="16" height="16" viewBox="0 0 16 16" fill="none" xmlns="http://www.w3.org/2000/svg">
<g clip-path="url(#clip0_7892_71694)">
<path fill-rule="evenodd" clip-rule="evenodd" d="M12.2123 3.01994C11.8833 2.69091 11.437 2.50603 10.9717 2.50603C10.5098 2.50603 10.0658 2.69157 9.73437 3.02298L3.90379 8.85356C3.33997 9.41739 3.02321 10.1821 3.02321 10.9795C3.02321 11.7749 3.33859 12.531 3.90379 13.0962C4.47093 13.6633 5.23696 13.9859 6.02968 13.9859C6.82046 13.9859 7.57788 13.6648 8.14643 13.0962L13.6265 7.61613C13.9194 7.32324 14.3943 7.32324 14.6872 7.61613C14.9801 7.90902 14.9801 8.3839 14.6872 8.67679L9.20709 14.1569C8.36669 14.9973 7.23145 15.4859 6.02968 15.4859C4.82985 15.4859 3.68493 14.9987 2.84313 14.1569C1.99938 13.3131 1.52322 12.1766 1.52322 10.9795C1.52321 9.78427 1.998 8.63803 2.84313 7.7929L8.67371 1.96232C9.2816 1.35444 10.1052 1.00603 10.9717 1.00603C11.8349 1.00603 12.6627 1.349 13.273 1.95928C13.8833 2.5696 14.226 3.39728 14.226 4.26034C14.226 5.12344 13.8832 5.95118 13.2729 6.56149L7.43932 12.3891C7.43923 12.3892 7.43941 12.389 7.43932 12.3891C7.07045 12.7578 6.56342 12.9816 6.02342 12.9816C5.48116 12.9816 4.9782 12.7564 4.61089 12.3891C4.24174 12.0199 4.02127 11.5192 4.02127 10.9795C4.02127 10.4457 4.23732 9.93409 4.61081 9.56059L10.0909 4.08051C10.3838 3.78762 10.8587 3.78762 11.1516 4.08051C11.4444 4.37341 11.4444 4.84828 11.1516 5.14117L5.67147 10.6213C5.57532 10.7174 5.52127 10.8491 5.52127 10.9795C5.52127 11.1039 5.57106 11.2279 5.67155 11.3284C5.77389 11.4308 5.9015 11.4816 6.02342 11.4816C6.14748 11.4816 6.2779 11.4292 6.37866 11.3284L12.2122 5.50083C12.2123 5.50074 12.2121 5.50092 12.2122 5.50083C12.541 5.17185 12.726 4.72549 12.726 4.26034C12.726 3.79503 12.5413 3.34891 12.2123 3.01994Z" fill="black"/>
</g>
<defs>
<clipPath id="clip0_7892_71694">
<rect width="16" height="16" fill="white"/>
</clipPath>
</defs>
</svg>

<svg xmlns="http://www.w3.org/2000/svg" width="16" height="16" viewBox="0 0 16 16"><path fill-rule="evenodd" d="M12.212 3.02a1.75 1.75 0 00-2.478.003l-5.83 5.83a3.007 3.007 0 00-.88 2.127c0 .795.315 1.551.88 2.116.567.567 1.333.89 2.126.89.79 0 1.548-.321 2.116-.89l5.48-5.48a.75.75 0 011.061 1.06l-5.48 5.48a4.494 4.494 0 01-3.177 1.33c-1.2 0-2.345-.487-3.187-1.33a4.485 4.485 0 01-1.32-3.177c0-1.195.475-2.341 1.32-3.186l5.83-5.83a3.25 3.25 0 015.553 2.297c0 .863-.343 1.691-.953 2.301L7.439 12.39a2.01 2.01 0 01-1.416.593 2 2 0 01-1.412-.593 1.991 1.991 0 010-2.828l5.48-5.48a.75.75 0 011.06 1.06l-5.48 5.48a.491.491 0 000 .707.5.5 0 00.352.154.509.509 0 00.356-.154l5.833-5.827a1.755 1.755 0 000-2.481z"/></svg>
